img/icons/misc/megaphone.svg

<svg fill="none" viewBox="0 0 16 16" xmlns="http://www.w3.org/2000/svg"><path d="m15 5.28v-2.28c0-0.53-0.211-1.04-0.586-1.41s-0.884-0.586-1.41-0.586c0 0-3 3-6 3h-5.5c-0.828 0-1.5 0.672-1.5 1.5v3c0 0.828 0.671 1.5 1.5 1.5h1.75s-0.0768 0.676-0.154 1.23c-0.077 0.549-0.0924 1.38 0.00257 2.02 0.095 0.636 0.296 1.39 0.913 1.65 0.147 0.0629 0.312 0.104 0.494 0.104 0.777 0 1.49-0.177 1.49-0.75 0-0.574-0.5-0.732-0.5-1.25s0.25-0.576 0.25-1-0.25-0.424-0.25-1 0.586-1 1.5-1c3 0 6 3 6 3 0.53 0 1.04-0.211 1.41-0.586s0.586-0.884 0.586-1.41v-2.28c0.595-0.347 1-0.985 1-1.72s-0.405-1.38-1-1.72zm-1 5.72c-1e-4 0.207-0.0643 0.409-0.184 0.578-0.12 0.169-0.289 0.296-0.484 0.365-0.956-0.851-3.58-2.94-6.33-2.94h-5.25c-0.414 0-0.75-0.336-0.75-0.75v-2.5c0-0.414 0.336-0.75 0.75-0.75h5.25c2.75 0 5.38-2.09 6.33-2.94 0.195 0.0687 0.364 0.196 0.484 0.365 0.12 0.169 0.184 0.371 0.184 0.578v8z" fill="#000"/></svg>

<svg xmlns="http://www.w3.org/2000/svg" viewBox="0 0 16 16" fill="none">
  <path fill="#000"
    d="M15 5.277V3a2 2 0 0 0-2-2s-3 3-6 3H1.5A1.5 1.5 0 0 0 0 5.5v3A1.5 1.5 0 0 0 1.5 10h1.75s-.077.677-.154 1.226a7.938 7.938 0 0 0 .003 2.02c.095.636.296 1.386.913 1.65.147.063.312.104.494.104C5.283 15 6 14.823 6 14.25c0-.574-.5-.732-.5-1.25s.25-.576.25-1c0-.424-.25-.424-.25-1 0-.576.586-1 1.5-1 3 0 6 3 6 3a2 2 0 0 0 2-2V8.723c.595-.347 1-.985 1-1.723 0-.738-.405-1.376-1-1.723ZM14 11a1 1 0 0 1-.668.943C12.376 11.093 9.747 9 7 9H1.75A.75.75 0 0 1 1 8.25v-2.5A.75.75 0 0 1 1.75 5H7c2.747 0 5.376-2.092 6.332-2.943A1 1 0 0 1 14 3v8Z" />
</svg>
